X:31
T:Cymbal THO3.31, La
T:La Cymbal THO3.31
O:England;London
M:6/8
L:1/8
N: The last repeat mark is missing in the original, it's possible that it's not meant to be repeated.
Z:vmp. Peter Dunk 2011.from a transcription by Fynn Titford-Mock 2006-9
B:Thompson's Compleat Collection of 200 Favourite Country Dances Vol. III.1765-72
Q:3/8=100
K:A
|:(Ad)!wedge!d dfd &D4x2|{f}e2 d d2 A &D4x2|\
(Ad)!wedge!d dfd &D4x2|ege d3 &D4x2::Aaa a2 A &D4x2|Bec cdA &D4x2|
Aaa a2 A &D4x2|Bec (cd)A &D4x2::faf gbe &A4x2|\
faf g2 e &A4x2|faf geb &A4x2|agf f2 e &A4x2|\
fad' d'c'b &A4x2|{b}a2 a a2 e &A4x2|
faf (ag)!wedge!f &A4x2|(fe)!wedge!e e2 e &A4x2|\
fad' d'c'!wedge!b &A4x2|(ba)!wedge!a a2 e &A4x2|\
faf agf &A4x2|fee e2 !D.C.!A &A4x2:|

